; generated by PrusaSlicer 2.6.1+linux-x64-GTK2 on 2023-10-12 at 21:13:34 UTC

; 

; external perimeters extrusion width = 0.44mm
; perimeters extrusion width = 0.40mm
; infill extrusion width = 0.40mm
; solid infill extrusion width = 0.40mm
; top infill extrusion width = 0.40mm
; support material extrusion width = 0.40mm
; first layer extrusion width = 0.40mm

;TYPE:Custom
M413 S0 ; disable Power Loss Recovery
G90 ; use absolute coordinates
M83 ; extruder relative mode
M104 S120 ; set temporary nozzle temp to prevent oozing during homing and auto bed leveling
M140 S80 ; set final bed temp
G4 S10 ; allow partial nozzle warmup
G28 ; home all axis
;G29 ; run abl mesh
M420 S1 ; load mesh
G1 Z50 F240
G1 X2 Y10 F3000
M104 S240 ; set final nozzle temp
M190 S80 ; wait for bed temp to stabilize
M109 S240 ; wait for nozzle temp to stabilize
G1 Z0.28 F240
G92 E0
G1 Y140 E10 F1500 ; prime the nozzle
G1 X2.3 F5000
G92 E0
G1 Y10 E10 F1200 ; prime the nozzle
G92 E0
G21 ; set units to millimeters
G90 ; use absolute coordinates
M83 ; use relative distances for extrusion
; Filament gcode
M107
;LAYER_CHANGE
;Z:0.35
;HEIGHT:0.35
;BEFORE_LAYER_CHANGE
G92 E0
;0.35


G1 E-2 F2400
G1 Z.4 F15000
;AFTER_LAYER_CHANGE
;0.35
M204 S500
G1 X103.267 Y91.409
G1 Z.35
G1 E2 F2400
;TYPE:Skirt/Brim
;WIDTH:0.4
G1 X104.542 Y90.046 E.08823
G1 X105.459 Y89.312 E.05553
G1 X107.087 Y88.361 E.08913
G1 X108.859 Y87.716 E.08915
G1 X110.717 Y87.398 E.08912
G1 X112.048 Y87.392 E.06292
G1 X113.308 Y87.512 E.05984
G1 X115.131 Y87.991 E.08911
G1 X116.839 Y88.788 E.08911
G1 X118.358 Y89.859 E.08787
G1 X133.794 Y104.393 E1.00232
G1 X134.952 Y105.876 E.08895
G1 X135.318 Y106.487 E.03367
G1 X136.08 Y108.211 E.08911
G1 X136.522 Y110.044 E.08914
G1 X136.629 Y111.926 E.08912
G1 X136.526 Y113.096 E.05553
G1 X136.088 Y114.93 E.08914
G1 X135.838 Y115.598 E.03372
G1 X134.965 Y117.268 E.08909
G1 X133.807 Y118.757 E.08918
G1 X125.415 Y126.774 E.54868
G1 X123.893 Y127.682 E.08379
G1 X122.67 Y127.875 E.05853
G1 X101.33 Y127.875 E1.00886
G1 X99.603 Y127.48 E.08375
G1 X98.52 Y126.711 E.06279
G1 X97.289 Y125.48 E.0823
G1 X96.347 Y123.98 E.08374
G1 X96.125 Y122.67 E.06281
G1 X96.125 Y101.33 E1.00886
G1 X96.52 Y99.603 E.08375
G1 X97.061 Y98.768 E.04704
G1 X103.229 Y91.455 E.45228
G1 X103.49 Y91.676 F15000
G1 F2400
G1 X104.275 Y90.749 E.05743
G1 X105.662 Y89.566 E.08618
G1 X107.241 Y88.647 E.08637
G1 X108.959 Y88.025 E.08638
G1 X110.761 Y87.72 E.0864
G1 X112.034 Y87.717 E.06018
G1 X113.236 Y87.828 E.05707
G1 X115.004 Y88.29 E.08639
G1 X116.661 Y89.06 E.08638
G1 X118.135 Y90.096 E.08517
G1 X133.57 Y104.628 E1.00222
G1 X134.689 Y106.067 E.08618
G1 X135.026 Y106.628 E.03094
G1 X135.767 Y108.298 E.08637
G1 X136.199 Y110.074 E.08641
G1 X136.306 Y111.898 E.08638
G1 X136.202 Y113.068 E.05553
G1 X135.775 Y114.844 E.08635
G1 X135.545 Y115.457 E.03095
G1 X134.702 Y117.078 E.08638
G1 X133.583 Y118.522 E.08636
G1 X125.191 Y126.539 E.54868
G1 X123.725 Y127.394 E.08023
G1 X122.67 Y127.55 E.05042
G1 X101.33 Y127.55 E1.00886
G1 X99.68 Y127.155 E.08021
G1 X98.749 Y126.481 E.05434
G1 X97.519 Y125.251 E.08224
G1 X96.631 Y123.805 E.08022
G1 X96.45 Y122.67 E.05434
G1 X96.45 Y101.33 E1.00886
G1 X97.31 Y98.977 E.11844
G1 X103.451 Y91.722 E.44936
G1 X103.699 Y91.932 F15000
G1 F2400
G1 X104.52 Y90.963 E.06004
G1 X105.865 Y89.82 E.08344
G1 X107.396 Y88.933 E.08365
G1 X109.06 Y88.334 E.08361
G1 X110.805 Y88.042 E.08364
G1 X112.02 Y88.041 E.05744
G1 X113.164 Y88.145 E.05431
G1 X114.876 Y88.589 E.08361
G1 X116.482 Y89.331 E.08364
G1 X117.913 Y90.332 E.08256
G1 X133.345 Y104.863 E1.00208
G1 X134.427 Y106.258 E.08346
G1 X134.733 Y106.77 E.0282
G1 X135.454 Y108.385 E.08361
G1 X135.875 Y110.103 E.08362
G1 X135.982 Y111.869 E.08364
G1 X135.878 Y113.039 E.05553
G1 X135.461 Y114.758 E.08362
G1 X135.252 Y115.316 E.02817
G1 X134.439 Y116.887 E.08363
G1 X133.358 Y118.287 E.08362
G1 X124.966 Y126.304 E.54868
G1 X123.559 Y127.104 E.07652
G1 X122.67 Y127.225 E.04242
G1 X101.33 Y127.225 E1.00886
G1 X99.76 Y126.831 E.07652
G1 X98.979 Y126.251 E.04599
G1 X97.749 Y125.021 E.08224
G1 X96.917 Y123.632 E.07654
G1 X96.775 Y122.67 E.04597
G1 X96.775 Y101.33 E1.00886
G1 X97.558 Y99.187 E.10786
G1 X103.661 Y91.978 E.44654
G1 E-1.4
;WIPE_START
G1 F12000
G1 X104.52 Y90.963 E-.25264
G1 X105.865 Y89.82 E-.33536
G1 X105.92 Y89.788 E-.012
;WIPE_END
G1 Z.75 F15000
G1 X103.655 Y100.314
G1 Z.35
G1 E2 F2400
G1 X122.073 Y100.326 E.87072
G1 X122.422 Y100.404 E.01691
G1 X122.79 Y100.578 E.01924
G1 X123.271 Y101.002 E.03031
G1 X123.415 Y101.211 E.012
G1 X123.687 Y101.967 E.03798
G1 X123.687 Y122.029 E.94844
G1 X123.463 Y122.707 E.03376
G1 X123.24 Y123.031 E.01859
G1 X122.818 Y123.402 E.02656
G1 X122.682 Y123.486 E.00756
G1 X122.017 Y123.687 E.03284
G1 X101.971 Y123.687 E.94769
G1 X101.293 Y123.463 E.03376
G1 X100.969 Y123.24 E.01859
G1 X100.598 Y122.818 E.02656
G1 X100.514 Y122.682 E.00756
G1 X100.313 Y122.017 E.03284
G1 X100.313 Y101.971 E.94769
G1 X100.537 Y101.293 E.03376
G1 X100.76 Y100.969 E.01859
G1 X101.182 Y100.598 E.02656
G1 X101.318 Y100.514 E.00756
G1 X101.984 Y100.313 E.03289
G1 X103.595 Y100.314 E.07616
G1 X103.595 Y100.639 F15000
G1 F2400
G1 X122.055 Y100.651 E.87271
G1 X122.299 Y100.705 E.01181
G1 X122.629 Y100.861 E.01726
G1 X123.039 Y101.23 E.02608
G1 X123.118 Y101.344 E.00656
G1 X123.362 Y101.997 E.03296
G1 X123.362 Y122.001 E.9457
G1 X123.163 Y122.58 E.02894
G1 X123.011 Y122.8 E.01264
G1 X122.615 Y123.147 E.02489
G1 X122.532 Y123.198 E.00461
G1 X121.992 Y123.362 E.02668
G1 X101.999 Y123.362 E.94518
G1 X101.42 Y123.163 E.02894
G1 X101.2 Y123.011 E.01264
G1 X100.853 Y122.615 E.02489
G1 X100.802 Y122.532 E.00461
G1 X100.638 Y121.992 E.02668
G1 X100.638 Y101.999 E.94518
G1 X100.837 Y101.42 E.02894
G1 X100.989 Y101.2 E.01264
G1 X101.385 Y100.853 E.02489
G1 X101.468 Y100.802 E.00461
G1 X102.008 Y100.638 E.02668
G1 X103.535 Y100.639 E.07219
G1 X103.535 Y100.964 F15000
G1 F2400
G1 X122.037 Y100.975 E.87469
G1 X122.177 Y101.007 E.00679
G1 X122.467 Y101.144 E.01516
G1 X122.805 Y101.456 E.02175
G1 X123.037 Y102.029 E.02923
G1 X123.037 Y121.971 E.94277
G1 X122.865 Y122.448 E.02397
G1 X122.782 Y122.569 E.00694
G1 X122.415 Y122.891 E.02308
G1 X121.967 Y123.037 E.02228
G1 X102.029 Y123.037 E.94258
G1 X101.552 Y122.865 E.02397
G1 X101.431 Y122.782 E.00694
G1 X101.109 Y122.415 E.02308
G1 X100.963 Y121.967 E.02228
G1 X100.963 Y102.029 E.94258
G1 X101.135 Y101.552 E.02397
G1 X101.218 Y101.431 E.00694
G1 X101.612 Y101.093 E.02454
G1 X102.033 Y100.963 E.02083
G1 X103.475 Y100.964 E.06817
G1 X103.475 Y101.289 F15000
G1 F2400
G1 X122.019 Y101.3 E.87668
G1 X122.304 Y101.426 E.01473
G1 X122.543 Y101.654 E.01562
G1 X122.712 Y102.062 E.02088
G1 X122.712 Y121.94 E.93975
G1 X122.552 Y122.338 E.02028
G1 X122.238 Y122.614 E.01976
G1 X121.94 Y122.712 E.01483
G1 X102.06 Y122.712 E.93984
G1 X101.662 Y122.552 E.02028
G1 X101.386 Y122.238 E.01976
G1 X101.288 Y121.94 E.01483
G1 X101.288 Y102.06 E.93984
G1 X101.448 Y101.662 E.02028
G1 X101.762 Y101.386 E.01976
G1 X102.06 Y101.288 E.01483
G1 X103.415 Y101.289 E.06406
G1 X103.415 Y101.614 F15000
G1 F2400
G1 X121.964 Y101.625 E.87692
G1 X122.138 Y101.707 E.00909
G1 X122.29 Y101.859 E.01016
G1 X122.387 Y102.094 E.01202
G1 X122.387 Y121.906 E.93663
G1 X122.291 Y122.138 E.01187
G1 X122.093 Y122.322 E.01278
G1 X121.91 Y122.387 E.00918
G1 X102.094 Y122.387 E.93681
G1 X101.862 Y122.291 E.01187
G1 X101.678 Y122.093 E.01278
G1 X101.613 Y121.91 E.00918
G1 X101.613 Y102.094 E.93681
G1 X101.709 Y101.862 E.01187
G1 X101.907 Y101.678 E.01278
G1 X102.09 Y101.613 E.00918
G1 X103.355 Y101.613 E.0598
G1 X103.355 Y101.938 F15000
G1 F2400
G1 X121.874 Y101.938 E.8755
G1 X121.933 Y101.962 E.00301
G1 X122.038 Y102.067 E.00702
G1 X122.062 Y102.126 E.00301
G1 X122.062 Y121.874 E.9336
G1 X122.038 Y121.933 E.00301
G1 X121.933 Y122.038 E.00702
G1 X121.874 Y122.062 E.00301
G1 X102.126 Y122.062 E.9336
G1 X102.067 Y122.038 E.00301
G1 X101.962 Y121.933 E.00702
G1 X101.938 Y121.874 E.00301
G1 X101.938 Y102.126 E.9336
G1 X101.962 Y102.067 E.00301
G1 X102.067 Y101.962 E.00702
G1 X102.126 Y101.938 E.00301
G1 X103.295 Y101.938 E.05527
G1 E-1.4
;WIPE_START
G1 F12000
G1 X106.453 Y101.938 E-.6
;WIPE_END
G1 Z.75 F15000
G1 X111.871 Y91.525
G1 Z.35
G1 E2 F2400
;TYPE:Support material
G1 X112.413 Y91.55 E.02565
G1 X113.53 Y91.805 E.05417
G1 X114.583 Y92.255 E.05414
G1 X115.539 Y92.886 E.05415
G1 X116.367 Y93.677 E.05414
G1 X117.04 Y94.604 E.05416
G1 X117.537 Y95.635 E.05411
G1 X117.841 Y96.739 E.05413
G1 X117.944 Y97.88 E.05416
G1 X117.841 Y99.021 E.05416
G1 X117.654 Y99.7 E.0333
G1 X105.443 Y99.7 E.57728
G1 X105.398 Y99.58 E.00606
G1 X105.193 Y98.453 E.05415
G1 X105.193 Y97.307 E.05418
G1 X105.398 Y96.181 E.05411
G1 X105.8 Y95.108 E.05417
G1 X106.388 Y94.125 E.05415
G1 X107.141 Y93.263 E.05411
G1 X108.037 Y92.549 E.05416
G1 X109.045 Y92.006 E.05413
G1 X110.134 Y91.652 E.05414
G1 X111.269 Y91.498 E.05415
G1 X111.822 Y91.523 E.02617
G1 X117.415 Y99.554 F15000
G1 F2400
G1 X117.415 Y96.293 E.15417
G1 X117.262 Y95.739 E.02717
G1 X117.054 Y95.307 E.02267
G1 X117.054 Y99.408 E.19388
G1 X116.693 Y99.408 E.01707
G1 X116.693 Y94.624 E.22617
G1 X116.332 Y94.127 E.02904
G1 X116.332 Y99.408 E.24966
G1 X115.971 Y99.408 E.01707
G1 X115.971 Y93.703 E.26971
G1 X115.61 Y93.358 E.02361
G1 X115.61 Y99.408 E.28602
G1 X115.249 Y99.408 E.01707
G1 X115.249 Y93.045 E.30081
G1 X114.888 Y92.806 E.02047
G1 X114.888 Y99.408 E.31211
G1 X114.527 Y99.408 E.01707
G1 X114.527 Y92.568 E.32337
G1 X114.444 Y92.513 E.00471
G1 X114.166 Y92.394 E.0143
G1 X114.166 Y99.408 E.33159
G1 X113.805 Y99.408 E.01707
G1 X113.805 Y92.24 E.33887
G1 X113.444 Y92.086 E.01855
G1 X113.444 Y99.408 E.34615
G1 X113.083 Y99.408 E.01707
G1 X113.083 Y92.002 E.35012
G1 X112.722 Y91.92 E.0175
G1 X112.722 Y99.408 E.354
G1 X112.361 Y99.408 E.01707
G1 X112.361 Y91.84 E.35778
G1 X112 Y91.824 E.01708
G1 X112 Y99.408 E.35854
G1 X111.639 Y99.408 E.01707
G1 X111.639 Y91.808 E.35929
G1 X111.282 Y91.792 E.01689
G1 X111.278 Y99.408 E.36005
G1 X110.917 Y99.408 E.01707
G1 X110.917 Y91.841 E.35773
G1 X110.556 Y91.89 E.01722
G1 X110.556 Y99.408 E.35542
G1 X110.195 Y99.408 E.01707
G1 X110.195 Y91.94 E.35305
G1 X109.834 Y92.057 E.01794
G1 X109.834 Y99.408 E.34752
G1 X109.473 Y99.408 E.01707
G1 X109.473 Y92.174 E.34199
G1 X109.112 Y92.302 E.01811
G1 X109.112 Y99.408 E.33594
G1 X108.751 Y99.408 E.01707
G1 X108.751 Y92.496 E.32677
G1 X108.39 Y92.69 E.01937
G1 X108.39 Y99.408 E.3176
G1 X108.029 Y99.408 E.01707
G1 X108.029 Y92.929 E.3063
G1 X107.668 Y93.216 E.0218
G1 X107.668 Y99.408 E.29273
G1 X107.307 Y99.408 E.01707
G1 X107.307 Y93.517 E.2785
G1 X106.946 Y93.93 E.02593
G1 X106.946 Y99.408 E.25898
G1 X106.585 Y99.408 E.01707
G1 X106.585 Y94.365 E.23841
G1 X106.224 Y94.969 E.03327
G1 X106.224 Y99.408 E.20986
G1 X105.863 Y99.408 E.01707
G1 X105.863 Y95.773 E.17185
G1 X105.681 Y96.259 E.02453
G1 X105.502 Y97.243 E.04728
G1 X105.502 Y99.336 E.09895
G1 E-1.4
;WIPE_START
G1 F12000
G1 X105.502 Y97.243 E-.39767
G1 X105.681 Y96.259 E-.19003
G1 X105.704 Y96.198 E-.0123
;WIPE_END
G1 Z.75 F15000
G1 X126.375 Y105.225
G1 Z.35
G1 E2 F2400
G1 X126.977 Y105.252 E.02849
G1 X128.093 Y105.506 E.05411
G1 X129.146 Y105.956 E.05414
G1 X130.102 Y106.587 E.05415
G1 X130.93 Y107.379 E.05417
G1 X131.603 Y108.305 E.05412
G1 X132.1 Y109.337 E.05415
G1 X132.405 Y110.441 E.05415
G1 X132.508 Y111.582 E.05416
G1 X132.405 Y112.723 E.05416
G1 X132.1 Y113.827 E.05415
G1 X131.604 Y114.859 E.05413
G1 X130.93 Y115.785 E.05415
G1 X130.102 Y116.577 E.05417
G1 X129.147 Y117.208 E.05411
G1 X128.093 Y117.658 E.05418
G1 X126.977 Y117.912 E.05411
G1 X125.833 Y117.964 E.05414
G1 X124.698 Y117.81 E.05415
G1 X124.3 Y117.681 E.01978
G1 X124.3 Y105.483 E.57667
G1 X124.698 Y105.354 E.01978
G1 X125.833 Y105.2 E.05415
G1 X126.326 Y105.222 E.02333
G1 X131.854 Y114.001 F15000
G1 F2400
G1 X131.854 Y109.544 E.21071
G1 X131.826 Y109.44 E.00509
G1 X131.493 Y108.75 E.03622
G1 X131.493 Y114.413 E.26772
G1 X131.352 Y114.708 E.01546
G1 X131.132 Y115.01 E.01766
G1 X131.132 Y108.154 E.32412
G1 X130.771 Y107.658 E.029
G1 X130.771 Y115.506 E.37102
G1 X130.709 Y115.592 E.00501
G1 X130.41 Y115.878 E.01956
G1 X130.41 Y107.286 E.40619
G1 X130.049 Y106.941 E.02361
G1 X130.049 Y116.223 E.43881
G1 X129.919 Y116.347 E.00849
G1 X129.688 Y116.5 E.0131
G1 X129.688 Y106.664 E.465
G1 X129.327 Y106.426 E.02044
G1 X129.327 Y116.738 E.48751
G1 X128.966 Y116.967 E.02021
G1 X128.966 Y106.197 E.50916
G1 X128.605 Y106.043 E.01855
G1 X128.605 Y117.121 E.52372
G1 X128.244 Y117.275 E.01855
G1 X128.244 Y105.889 E.53828
G1 X128.003 Y105.786 E.01239
G1 X127.883 Y105.758 E.00583
G1 X127.883 Y117.406 E.55067
G1 X127.522 Y117.488 E.0175
G1 X127.522 Y105.676 E.55842
G1 X127.161 Y105.594 E.0175
G1 X127.161 Y117.57 E.56617
G1 X126.937 Y117.621 E.01086
G1 X126.801 Y117.628 E.00644
G1 X126.801 Y105.536 E.57166
G1 X126.44 Y105.52 E.01708
G1 X126.44 Y117.644 E.57317
G1 X126.079 Y117.66 E.01708
G1 X126.079 Y105.504 E.57468
G1 X125.846 Y105.494 E.01103
G1 X125.718 Y105.511 E.0061
G1 X125.718 Y117.653 E.57402
G1 X125.357 Y117.604 E.01722
G1 X125.357 Y105.56 E.56939
G1 X124.996 Y105.609 E.01722
G1 X124.996 Y117.555 E.56475
G1 X124.763 Y117.524 E.01111
G1 X124.635 Y117.482 E.00637
G1 X124.635 Y105.528 E.56513
G1 E-1.4
;WIPE_START
G1 F12000
G1 X124.635 Y108.686 E-.6
;WIPE_END
G1 Z.75 F15000
G1 X120.95 Y120.95
G1 Z.35
G1 E2 F2400
;TYPE:Perimeter
;WIDTH:0.4
G1 X103.05 Y120.95 E.84623
G1 X103.05 Y103.05 E.84623
G1 X120.95 Y103.05 E.84623
G1 X120.95 Y120.89 E.8434
G1 X121.275 Y121.275 F15000
G1 F2400
G1 X102.725 Y121.275 E.87696
G1 X102.725 Y102.725 E.87696
G1 X121.275 Y102.725 E.87696
G1 X121.275 Y121.215 E.87413
G1 X121.6 Y121.6 F15000
;TYPE:External perimeter
G1 F2400
G1 X102.4 Y121.6 E.90769
G1 X102.4 Y102.4 E.90769
G1 X121.6 Y102.4 E.90769
G1 X121.6 Y121.54 E.90486
G1 X121.214 Y121.496 F15000
G1 E-1.4 F2400
;WIPE_START
G1 F12000
G1 X118.442 Y121.55 E-.6
;WIPE_END
G1 Z.75 F15000
G1 X120.804 Y103.86
G1 Z.35
G1 E2 F2400
;TYPE:Solid infill
;WIDTH:0.403367
G1 X120.286 Y103.342 E.03499
G1 X119.822 Y103.342 E.02216
G1 X120.658 Y104.178 E.05647
G1 X120.658 Y104.642 E.02216
G1 X119.358 Y103.342 E.08782
G1 X118.894 Y103.342 E.02216
G1 X120.658 Y105.106 E.11916
G1 X120.658 Y105.571 E.02221
G1 X118.429 Y103.342 E.15057
G1 X117.965 Y103.342 E.02216
G1 X120.658 Y106.035 E.18191
G1 X120.658 Y106.499 E.02216
G1 X117.501 Y103.342 E.21326
G1 X117.037 Y103.342 E.02216
G1 X120.658 Y106.963 E.2446
G1 X120.658 Y107.427 E.02216
G1 X116.573 Y103.342 E.27594
G1 X116.108 Y103.342 E.02221
G1 X120.658 Y107.892 E.30736
G1 X120.658 Y108.356 E.02216
G1 X115.644 Y103.342 E.3387
G1 X115.18 Y103.342 E.02216
G1 X120.658 Y108.82 E.37004
G1 X120.658 Y109.284 E.02216
G1 X114.716 Y103.342 E.40139
G1 X114.251 Y103.342 E.02221
G1 X120.658 Y109.749 E.4328
G1 X120.658 Y110.213 E.02216
G1 X113.787 Y103.342 E.46414
G1 X113.323 Y103.342 E.02216
G1 X120.658 Y110.677 E.49548
G1 X120.658 Y111.141 E.02216
G1 X112.859 Y103.342 E.52683
G1 X112.394 Y103.342 E.02221
G1 X120.658 Y111.606 E.55824
G1 X120.658 Y112.07 E.02216
G1 X111.93 Y103.342 E.58958
G1 X111.466 Y103.342 E.02216
G1 X120.658 Y112.534 E.62093
G1 X120.658 Y112.998 E.02216
G1 X111.002 Y103.342 E.65227
G1 X110.538 Y103.342 E.02216
G1 X120.658 Y113.462 E.68361
G1 X120.658 Y113.927 E.02221
G1 X110.073 Y103.342 E.71502
G1 X109.609 Y103.342 E.02216
G1 X120.658 Y114.391 E.74637
G1 X120.658 Y114.855 E.02216
G1 X109.145 Y103.342 E.77771
G1 X108.681 Y103.342 E.02216
G1 X120.658 Y115.319 E.80905
G1 X120.658 Y115.784 E.02221
G1 X108.216 Y103.342 E.84047
G1 X107.752 Y103.342 E.02216
G1 X120.658 Y116.248 E.87181
G1 X120.658 Y116.712 E.02216
G1 X107.288 Y103.342 E.90315
G1 X106.824 Y103.342 E.02216
G1 X120.658 Y117.176 E.9345
G1 X120.658 Y117.64 E.02216
G1 X106.36 Y103.342 E.96584
G1 X105.895 Y103.342 E.02221
G1 X120.658 Y118.105 E.99725
G1 X120.658 Y118.569 E.02216
G1 X105.431 Y103.342 E1.02859
G1 X104.967 Y103.342 E.02216
G1 X120.658 Y119.033 E1.05994
G1 X120.658 Y119.497 E.02216
G1 X104.503 Y103.342 E1.09128
G1 X104.038 Y103.342 E.02221
G1 X120.658 Y119.962 E1.12269
G1 X120.658 Y120.426 E.02216
G1 X103.574 Y103.342 E1.15404
