; generated by PrusaSlicer 2.6.1+linux-x64-GTK2 on 2023-09-22 at 17:57:29 UTC

; 

; external perimeters extrusion width = 0.44mm
; perimeters extrusion width = 0.40mm
; infill extrusion width = 0.40mm
; solid infill extrusion width = 0.40mm
; top infill extrusion width = 0.40mm
; support material extrusion width = 0.40mm
; first layer extrusion width = 0.40mm

M73 P0 R88
;TYPE:Custom
G90 ; use absolute coordinates
M83 ; extruder relative mode
M104 S120 ; set temporary nozzle temp to prevent oozing during homing and auto bed leveling
M140 S80 ; set final bed temp
G4 S10 ; allow partial nozzle warmup
G28 ; home all axis
;G29 ; run abl mesh
;M420 S1 ; load mesh
;G1 Z50 F240
G1 X2 Y10 F3000
M104 S250 ; set final nozzle temp
M190 S80 ; wait for bed temp to stabilize
M109 S250 ; wait for nozzle temp to stabilize
G1 Z0.28 F240
G92 E0
G1 Y140 E10 F1500 ; prime the nozzle
G1 X2.3 F5000
G92 E0
G1 Y10 E10 F1200 ; prime the nozzle
G92 E0
G90
G21 ; set units to millimeters
G90 ; use absolute coordinates
M82 ; use absolute distances for extrusion
G92 E0
; Filament gcode
M107
;LAYER_CHANGE
;Z:0.3
;HEIGHT:0.3
;BEFORE_LAYER_CHANGE
;0.3
G1 E-.85 F3600
G92 E0
G1 Z.4 F15000
;AFTER_LAYER_CHANGE
;0.3
G1 X36.897 Y90.221
G1 Z.3
G1 E.85 F2400
M204 S1000
;TYPE:Skirt/Brim
;WIDTH:0.4
G1 X38.422 Y89.736 E.91699
G1 X39.433 Y89.577 E.95983
G1 X40.403 Y89.541 E1.00046
G1 X167.187 Y93.077 E6.30974
G1 X190.439 Y95.418 E7.288
G1 X191.148 Y95.602 E7.31866
G1 X192.11 Y95.981 E7.36194
G1 X192.805 Y96.368 E7.39524
G1 X193.653 Y97.001 E7.43954
G1 X194.223 Y97.557 E7.47287
G1 X194.867 Y98.38 E7.51661
G1 X195.257 Y99.036 E7.54856
G1 X195.697 Y100.075 E7.59579
G1 X195.9 Y100.828 E7.62844
G1 X196.065 Y102.279 E7.68957
G1 X195.998 Y120.399 E8.44808
G1 X195.83 Y121.831 E8.50844
G1 X195.627 Y122.583 E8.54105
G1 X195.184 Y123.627 E8.58852
G1 X194.794 Y124.28 E8.62036
G1 X194.149 Y125.101 E8.66406
G1 X193.578 Y125.657 E8.69742
G1 X192.746 Y126.276 E8.74083
G1 X192.099 Y126.642 E8.77195
G1 X190.911 Y127.102 E8.82528
G1 X184.421 Y128.481 E9.10302
G1 X167.912 Y130.445 E9.79896
G1 X41.285 Y134.287 E15.10204
G1 X39.686 Y134.28 E15.16898
G1 X38.644 Y134.117 E15.21313
G1 X37.117 Y133.633 E15.28018
G1 X35.701 Y132.878 E15.34735
G1 X34.445 Y131.876 E15.41461
G1 X33.418 Y130.693 E15.48019
G1 X32.738 Y129.594 E15.53429
G1 X32.211 Y128.36 E15.59046
G1 X30.704 Y122.753 E15.8335
G1 X30.377 Y121.049 E15.90613
G1 X30.376 Y101.665 E16.71755
G1 X30.699 Y99.972 E16.7897
G1 X32.19 Y94.967 E17.00831
G1 X32.952 Y93.514 E17.07699
G1 X33.846 Y92.366 E17.1379
G1 X35.035 Y91.29 E17.20503
G1 X35.484 Y90.974 E17.22801
G1 X36.844 Y90.249 E17.29252
G1 X37.009 Y90.537 F15000
G1 F2400
G1 X38.475 Y90.068 E17.35695
G1 X39.485 Y89.909 E17.39975
G1 X40.403 Y89.877 E17.4382
G1 X167.172 Y93.413 E22.74685
G1 X190.395 Y95.751 E23.72389
G1 X191.987 Y96.293 E23.79429
G1 X192.605 Y96.637 E23.8239
G1 X193.453 Y97.27 E23.8682
G1 X193.959 Y97.764 E23.8978
G1 X194.603 Y98.587 E23.94154
G1 X194.95 Y99.169 E23.9699
G1 X195.387 Y100.204 E24.01693
G1 X195.567 Y100.872 E24.04589
G1 X195.73 Y102.278 E24.10514
G1 X195.662 Y120.398 E24.86365
G1 X195.498 Y121.786 E24.92216
G1 X195.317 Y122.454 E24.95113
G1 X194.877 Y123.492 E24.99832
G1 X194.53 Y124.073 E25.02665
G1 X193.885 Y124.894 E25.07035
G1 X193.378 Y125.388 E25.09998
G1 X192.545 Y126.007 E25.14342
G1 X191.971 Y126.332 E25.17103
G1 X190.799 Y126.785 E25.22363
G1 X184.381 Y128.148 E25.49828
G1 X167.872 Y130.112 E26.19422
G1 X41.276 Y133.951 E31.496
G1 X39.738 Y133.949 E31.56038
G1 X38.696 Y133.785 E31.60454
G1 X37.228 Y133.316 E31.66905
G1 X35.868 Y132.587 E31.73364
G1 X34.662 Y131.62 E31.79835
G1 X33.453 Y130.16 E31.8777
G1 X32.821 Y129 E31.933
G1 X32.455 Y128.024 E31.97663
G1 X31.011 Y122.597 E32.21171
G1 X30.712 Y121.046 E32.27783
G1 X30.712 Y101.666 E33.08908
G1 X31.022 Y100.065 E33.15734
G1 X32.504 Y95.085 E33.37484
G1 X33.241 Y93.686 E33.44103
G1 X34.106 Y92.578 E33.49987
G1 X35.252 Y91.546 E33.56443
G1 X36.957 Y90.567 E33.64673
G1 X37.12 Y90.854 F15000
G1 F2400
G1 X38.527 Y90.399 E33.70863
G1 X39.537 Y90.24 E33.75143
G1 X40.402 Y90.212 E33.78766
G1 X167.157 Y93.748 E39.09573
G1 X190.351 Y96.084 E40.07155
G1 X191.864 Y96.605 E40.13853
G1 X192.404 Y96.906 E40.16441
G1 X193.252 Y97.539 E40.20871
G1 X193.695 Y97.971 E40.23461
G1 X194.642 Y99.303 E40.30302
G1 X195.077 Y100.332 E40.34979
G1 X195.234 Y100.916 E40.3751
G1 X195.394 Y102.277 E40.43246
G1 X195.327 Y120.396 E41.19093
G1 X195.165 Y121.742 E41.24768
G1 X195.007 Y122.326 E41.27301
G1 X194.569 Y123.358 E41.31994
G1 X193.621 Y124.687 E41.38828
G1 X193.177 Y125.119 E41.41421
G1 X192.345 Y125.738 E41.45762
G1 X191.843 Y126.022 E41.48176
G1 X190.687 Y126.469 E41.53364
G1 X184.342 Y127.815 E41.80515
G1 X167.833 Y129.779 E42.50109
G1 X41.267 Y133.616 E47.80162
G1 X39.79 Y133.617 E47.86345
M73 P0 R87
G1 X38.748 Y133.454 E47.9076
G1 X37.339 Y132.999 E47.96958
G1 X36.035 Y132.296 E48.03159
G1 X34.879 Y131.365 E48.09372
G1 X33.742 Y129.988 E48.16847
G1 X33.123 Y128.853 E48.22259
G1 X32.779 Y127.935 E48.26363
G1 X31.338 Y122.52 E48.49819
G1 X31.048 Y121.043 E48.5612
G1 X31.048 Y101.667 E49.37229
G1 X31.344 Y100.157 E49.4367
G1 X32.819 Y95.202 E49.65311
G1 X33.529 Y93.858 E49.71674
G1 X34.366 Y92.79 E49.77354
G1 X35.469 Y91.802 E49.83553
G1 X37.068 Y90.884 E49.91271
;WIPE_START
G1 F12000
G1 X38.527 Y90.399 E49.47452
G1 X39.537 Y90.24 E49.18312
G1 X39.959 Y90.226 E49.06271
;WIPE_END
G92 E0
G1 Z.7 F15000
G1 X40.401 Y92.548
G1 Z.3
G1 E.85 F2400
;TYPE:Support material
G1 X41.003 Y92.575 E.87523
G1 X42.01 Y92.788 E.91832
G1 X42.982 Y93.189 E.96233
G1 X43.866 Y93.758 E1.00634
G1 X44.631 Y94.479 E1.05034
G1 X45.253 Y95.325 E1.0943
G1 X45.712 Y96.271 E1.13832
G1 X45.992 Y97.285 E1.18235
G1 X46.083 Y98.332 E1.22634
G1 X46.03 Y98.897 E1.25009
G1 X46.314 Y99.181 E1.2669
G1 X46.467 Y99.286 E1.27467
G1 X47.123 Y100.075 E1.31762
G1 X47.557 Y101.052 E1.36237
G1 X47.852 Y101.018 E1.3748
G1 X47.971 Y100.361 E1.40275
G1 X48.114 Y99.859 E1.4246
G1 X48.315 Y99.322 E1.4486
G1 X48.797 Y98.44 E1.49067
G1 X49.46 Y97.624 E1.53468
G1 X50.26 Y96.941 E1.57871
G1 X51.171 Y96.415 E1.62274
G1 X52.162 Y96.063 E1.66676
G1 X53.174 Y95.9 E1.70967
G1 X53.723 Y95.9 E1.73265
G1 X54.276 Y95.925 E1.75582
G1 X55.28 Y96.134 E1.79875
G1 X56.254 Y96.531 E1.84278
G1 X57.139 Y97.098 E1.88678
G1 X57.907 Y97.816 E1.93079
G1 X58.533 Y98.661 E1.97481
G1 X58.995 Y99.606 E2.01884
G1 X59.278 Y100.618 E2.06283
G1 X59.373 Y101.665 E2.10684
G1 X59.277 Y102.713 E2.15089
G1 X58.992 Y103.725 E2.1949
G1 X58.529 Y104.669 E2.23891
G1 X57.911 Y105.502 E2.28233
G1 X57.533 Y105.863 E2.30421
G1 X57.122 Y106.238 E2.3275
G1 X56.247 Y106.796 E2.37094
G1 X55.273 Y107.192 E2.41495
G1 X54.243 Y107.405 E2.45898
G1 X53.193 Y107.427 E2.50294
G1 X52.155 Y107.259 E2.54696
G1 X51.166 Y106.906 E2.59092
G1 X50.257 Y106.38 E2.63488
G1 X49.458 Y105.698 E2.67885
G1 X48.796 Y104.883 E2.7228
G1 X48.316 Y104.004 E2.76472
G1 X48.117 Y103.475 E2.78838
G1 X47.972 Y102.967 E2.81049
G1 X47.938 Y102.782 E2.81836
G1 X47.597 Y102.789 E2.83264
G1 X47.555 Y103.092 E2.84544
G1 X47.316 Y103.642 E2.87054
G1 X47.564 Y104.212 E2.89656
G1 X47.707 Y105.235 E2.9398
G1 X47.564 Y106.259 E2.98308
G1 X47.342 Y106.77 E3.0064
G1 X47.564 Y107.279 E3.02965
G1 X47.707 Y108.302 E3.07289
G1 X47.564 Y109.326 E3.11617
G1 X47.315 Y109.901 E3.1424
G1 X47.514 Y110.352 E3.16304
G1 X47.658 Y111.381 E3.20653
G1 X47.512 Y112.421 E3.25049
G1 X47.321 Y112.853 E3.27026
G1 X47.564 Y113.412 E3.29578
G1 X47.707 Y114.435 E3.33902
G1 X47.564 Y115.459 E3.3823
G1 X47.301 Y116.065 E3.40995
G1 X47.513 Y116.544 E3.43188
G1 X47.656 Y117.573 E3.47537
G1 X47.51 Y118.612 E3.51929
G1 X47.29 Y119.11 E3.54208
G1 X47.514 Y119.617 E3.56528
G1 X47.605 Y120.268 E3.5928
G1 X47.929 Y120.29 E3.60639
G1 X48.114 Y119.64 E3.63468
G1 X48.315 Y119.103 E3.65868
G1 X48.797 Y118.221 E3.70075
G1 X49.46 Y117.405 E3.74476
G1 X50.26 Y116.722 E3.78879
G1 X51.171 Y116.196 E3.83282
G1 X52.162 Y115.844 E3.87684
G1 X53.174 Y115.681 E3.91975
G1 X54.276 Y115.706 E3.96589
G1 X55.28 Y115.915 E4.00882
G1 X56.254 Y116.312 E4.05285
G1 X57.139 Y116.879 E4.09685
G1 X57.907 Y117.597 E4.14086
G1 X58.533 Y118.442 E4.18488
G1 X58.995 Y119.387 E4.22891
G1 X59.278 Y120.399 E4.2729
G1 X59.373 Y121.446 E4.31691
G1 X59.277 Y122.494 E4.36096
G1 X58.992 Y123.506 E4.40497
G1 X58.529 Y124.45 E4.44898
G1 X57.911 Y125.283 E4.4924
G1 X57.533 Y125.644 E4.51428
G1 X57.122 Y126.019 E4.53757
G1 X56.247 Y126.577 E4.58101
G1 X55.273 Y126.973 E4.62502
G1 X54.243 Y127.186 E4.66905
G1 X53.193 Y127.208 E4.71301
G1 X52.155 Y127.04 E4.75703
G1 X51.166 Y126.687 E4.80099
G1 X50.257 Y126.161 E4.84495
G1 X49.458 Y125.479 E4.88892
G1 X48.796 Y124.664 E4.93287
G1 X48.316 Y123.785 E4.97479
G1 X48.117 Y123.256 E4.99845
G1 X47.972 Y122.748 E5.02056
G1 X47.878 Y122.233 E5.04247
G1 X47.829 Y121.709 E5.0645
G1 X47.524 Y121.66 E5.07743
G1 X47.093 Y122.634 E5.12202
G1 X46.675 Y123.136 E5.14937
G1 X46.675 Y123.165 E5.15058
G1 X46.418 Y123.446 E5.16652
G1 X46.733 Y124.072 E5.19586
G1 X46.239 Y124.875 E5.23533
G1 X46.301 Y125.512 E5.26212
G1 X46.21 Y126.56 E5.30615
G1 X45.932 Y127.574 E5.35016
G1 X45.474 Y128.521 E5.39419
G1 X44.859 Y129.36 E5.43774
G1 X44.076 Y130.097 E5.48275
G1 X43.205 Y130.66 E5.52616
G1 X42.233 Y131.062 E5.57019
G1 X41.204 Y131.281 E5.61423
G1 X40.151 Y131.309 E5.65832
G1 X39.11 Y131.146 E5.70243
G1 X38.114 Y130.796 E5.74662
G1 X37.198 Y130.27 E5.79084
G1 X36.392 Y129.585 E5.83512
G1 X35.75 Y128.796 E5.8777
G1 X35.439 Y128.272 E5.90321
G1 X35.221 Y127.826 E5.92399
G1 X35.03 Y127.312 E5.94694
G1 X34.894 Y126.821 E5.96827
G1 X34.8 Y126.295 E5.99064
G1 X34.756 Y125.773 E6.01257
G1 X34.757 Y125.253 E6.03434
G1 X34.796 Y124.867 E6.05058
G1 X34.305 Y124.067 E6.08987
G1 X34.619 Y123.446 E6.119
G1 X34.325 Y123.158 E6.13623
G1 X34.325 Y123.096 E6.13883
G1 X34.118 Y122.889 E6.15108
G1 X33.611 Y121.982 E6.19458
G1 X33.383 Y121.021 E6.23592
G1 X33.383 Y120.213 E6.26974
G1 X33.589 Y119.34 E6.30729
G1 X33.709 Y119.079 E6.31931
G1 X33.578 Y118.843 E6.33061
G1 X33.355 Y117.886 E6.37174
G1 X33.355 Y117.093 E6.40494
G1 X33.557 Y116.223 E6.44233
G1 X33.688 Y115.937 E6.4555
G1 X33.577 Y115.738 E6.46504
G1 X33.354 Y114.78 E6.50621
G1 X33.354 Y113.987 E6.53941
G1 X33.556 Y113.118 E6.57676
G1 X33.677 Y112.852 E6.58899
G1 X33.577 Y112.672 E6.59761
G1 X33.354 Y111.714 E6.63878
G1 X33.354 Y110.921 E6.67198
G1 X33.556 Y110.051 E6.70937
G1 X33.68 Y109.78 E6.72185
G1 X33.611 Y109.656 E6.72779
G1 X33.383 Y108.695 E6.76913
G1 X33.383 Y107.887 E6.80295
G1 X33.589 Y107.014 E6.8405
G1 X33.706 Y106.76 E6.85221
G1 X33.611 Y106.589 E6.8604
G1 X33.383 Y105.629 E6.9017
G1 X33.383 Y104.82 E6.93556
G1 X33.589 Y103.947 E6.97311
G1 X33.726 Y103.651 E6.98676
G1 X33.61 Y103.444 E6.99669
G1 X33.383 Y102.483 E7.03802
G1 X33.383 Y101.675 E7.07184
G1 X33.589 Y100.802 E7.10939
G1 X33.794 Y100.357 E7.1299
G1 X34.148 Y99.775 E7.15842
G1 X34.325 Y99.598 E7.1689
G1 X34.325 Y99.544 E7.17116
G1 X34.617 Y99.255 E7.18836
G1 X34.54 Y98.595 E7.21618
G1 X34.539 Y98.067 E7.23828
G1 X34.584 Y97.551 E7.25996
G1 X34.679 Y97.021 E7.2825
G1 X34.816 Y96.532 E7.30376
G1 X35.007 Y96.018 E7.32671
G1 X35.227 Y95.571 E7.34757
G1 X35.536 Y95.052 E7.37285
G1 X36.177 Y94.265 E7.41534
G1 X36.981 Y93.582 E7.4595
G1 X37.896 Y93.057 E7.50366
G1 X38.89 Y92.707 E7.54777
G1 X39.9 Y92.548 E7.59057
G1 X40.351 Y92.548 E7.60945
;WIPE_START
G1 F12000
G1 X39.9 Y92.548 E7.48091
G1 X38.89 Y92.707 E7.18951
G1 X37.896 Y93.057 E6.88917
G1 X37.501 Y93.284 E6.75945
;WIPE_END
G92 E0
G1 Z.7 F15000
G1 X48.196 Y102.509
G1 Z.3
G1 E.85 F2400
G1 X48.189 Y102.475 E.85145
G1 X47.334 Y102.492 E.88725
;WIPE_START
G1 F12000
G1 X48.189 Y102.475 E.64353
G1 X48.196 Y102.509 E.63364
;WIPE_END
G1 E.03725 F3600
G92 E0
G1 Z.7 F15000
G1 X54.965 Y106.947
G1 Z.3
G1 E.85 F2400
G1 X53.214 Y107.125 E.92368
G1 X52.231 Y106.965 E.96537
;WIPE_START
G1 F12000
G1 X53.214 Y107.125 E.68153
G1 X54.965 Y106.947 E.17992
;WIPE_END
G1 E.11537 F3600
G92 E0
G1 Z.7 F15000
G1 X55.046 Y126.711
G1 Z.3
G1 E.85 F2400
G1 X53.214 Y126.906 E.92712
G1 X52.231 Y126.747 E.9688
;WIPE_START
G1 F12000
G1 X53.214 Y126.906 E.685
G1 X55.046 Y126.711 E.15993
;WIPE_END
G1 E.1188 F3600
G92 E0
G1 Z.7 F15000
G1 X41.951 Y130.813
G1 Z.3
G1 E.85 F2400
G1 X40.171 Y131.007 E.92495
G1 X39.184 Y130.852 E.96677
;WIPE_START
G1 F12000
G1 X40.171 Y131.007 E.68203
G1 X41.951 Y130.813 E.17173
;WIPE_END
G1 E.11677 F3600
G92 E0
G1 Z.7 F15000
G1 X41.94 Y93.086
G1 Z.3
G1 E.85 F2400
G1 X41.464 Y92.982 E.8704
G1 X39.086 Y92.982 E.96994
G1 X38.964 Y93.001 E.97511
G1 X38.722 Y93.086 E.98585
;WIPE_START
G1 F12000
G1 X38.964 Y93.001 E.91275
G1 X39.086 Y92.982 E.87756
G1 X41.464 Y92.982 E.19983
G1 X41.683 Y93.03 E.13585
;WIPE_END
G92 E0
G1 Z.7 F15000
G1 X51.263 Y96.711
G1 Z.3
G1 E.85 F2400
G1 X55.894 Y96.711 E1.04386
G1 X56.114 Y96.8 E1.05379
G1 X56.557 Y97.084 E1.07582
G1 X50.617 Y97.084 E1.32447
G1 X50.435 Y97.189 E1.33327
G1 X50.121 Y97.457 E1.35055
G1 X57.081 Y97.457 E1.6419
G1 X57.48 Y97.829 E1.66474
G1 X49.684 Y97.829 E1.99108
G1 X49.379 Y98.202 E2.01125
G1 X57.818 Y98.202 E2.36451
G1 X58.094 Y98.575 E2.38393
G1 X49.076 Y98.575 E2.76143
G1 X48.863 Y98.948 E2.77941
G1 X58.337 Y98.948 E3.17599
G1 X58.519 Y99.321 E3.19336
G1 X48.659 Y99.321 E3.6061
G1 X48.59 Y99.448 E3.61215
G1 X48.498 Y99.694 E3.62314
G1 X58.702 Y99.694 E4.05028
G1 X58.81 Y100.067 E4.06654
G1 X48.368 Y100.067 E4.50365
G1 X48.264 Y100.44 E4.51986
G1 X58.914 Y100.44 E4.96567
G1 X58.98 Y100.673 E4.97581
G1 X58.992 Y100.813 E4.98169
G1 X48.196 Y100.813 E5.43361
G1 X48.129 Y101.186 E5.44947
G1 X59.026 Y101.186 E5.90562
G1 X59.06 Y101.559 E5.9213
G1 X33.721 Y101.559 E6.982
G1 X33.809 Y101.186 E6.99804
M73 P1 R87
G1 X47.286 Y101.186 E7.56219
G1 X47.124 Y100.813 E7.57921
G1 X33.917 Y100.813 E8.13206
G1 X34.097 Y100.44 E8.1494
G1 X46.958 Y100.44 E8.68777
G1 X46.865 Y100.237 E8.69712
G1 X46.724 Y100.067 E8.70637
G1 X34.324 Y100.067 E9.22544
G1 X34.387 Y99.963 E9.23053
G1 X34.627 Y99.724 E9.24471
G1 X34.627 Y99.694 E9.24597
G1 X46.413 Y99.694 E9.73934
G1 X46.262 Y99.511 E9.74927
G1 X46.12 Y99.415 E9.75645
G1 X46.026 Y99.321 E9.76201
G1 X34.936 Y99.321 E10.22624
G1 X34.878 Y98.948 E10.24204
G1 X45.721 Y98.948 E10.69593
G1 X45.757 Y98.575 E10.71162
G1 X34.842 Y98.575 E11.16853
G1 X34.841 Y98.202 E11.18414
G1 X45.769 Y98.202 E11.64159
G1 X45.736 Y97.829 E11.65726
G1 X34.863 Y97.829 E12.11241
G1 X34.908 Y97.457 E12.1281
G1 X45.704 Y97.457 E12.58002
G1 X45.693 Y97.338 E12.58502
G1 X45.623 Y97.084 E12.59605
G1 X34.975 Y97.084 E13.04178
G1 X35.079 Y96.711 E13.05799
G1 X45.52 Y96.711 E13.49505
G1 X45.409 Y96.338 E13.51134
G1 X35.21 Y96.338 E13.93827
G1 X35.37 Y95.965 E13.95526
G1 X45.228 Y95.965 E14.36792
G1 X45.047 Y95.592 E14.38528
G1 X35.566 Y95.592 E14.78216
G1 X35.789 Y95.219 E14.80035
G1 X44.8 Y95.219 E15.17755
G1 X44.526 Y94.846 E15.19692
G1 X36.093 Y94.846 E15.54993
G1 X36.399 Y94.473 E15.57013
G1 X44.184 Y94.473 E15.89601
G1 X43.788 Y94.1 E15.91878
G1 X36.838 Y94.1 E16.20971
G1 X37.156 Y93.83 E16.22717
G1 X37.334 Y93.727 E16.23578
G1 X43.26 Y93.727 E16.48384
G1 X42.842 Y93.458 E16.50465
G1 X42.592 Y93.354 E16.51598
G1 X37.984 Y93.354 E16.70887
;WIPE_START
G1 F12000
G1 X40.966 Y93.354 E15.85887
;WIPE_END
G92 E0
G1 Z.7 F15000
G1 X55.236 Y96.442
G1 Z.3
G1 E.85 F2400
G1 X54.776 Y96.338 E.86974
G1 X52.354 Y96.338 E.97113
G1 X52.237 Y96.357 E.97609
G1 X51.996 Y96.442 E.98679
;WIPE_START
G1 F12000
G1 X52.237 Y96.357 E.91396
G1 X52.354 Y96.338 E.88018
G1 X54.776 Y96.338 E.18991
G1 X54.958 Y96.379 E.13679
;WIPE_END
G92 E0
G1 Z.7 F15000
G1 X51.292 Y116.475
G1 Z.3
G1 E.85 F2400
G1 X55.853 Y116.475 E1.04092
G1 X56.114 Y116.581 E1.05271
G1 X56.53 Y116.848 E1.0734
G1 X50.646 Y116.848 E1.31971
G1 X50.435 Y116.97 E1.32991
G1 X50.141 Y117.221 E1.34609
G1 X57.063 Y117.221 E1.63585
G1 X57.462 Y117.594 E1.65871
G1 X49.704 Y117.594 E1.98346
G1 X49.392 Y117.967 E2.00382
G1 X57.805 Y117.967 E2.35599
G1 X58.081 Y118.339 E2.37538
G1 X49.089 Y118.339 E2.75179
G1 X48.872 Y118.712 E2.76985
G1 X58.329 Y118.712 E3.16572
G1 X58.511 Y119.085 E3.18309
G1 X48.669 Y119.085 E3.59508
G1 X48.59 Y119.229 E3.60196
G1 X48.504 Y119.458 E3.6122
